X: 22386
T: Lad O'Beirne's
R: reel
M: 4/4
K: Gmajor
|:DG ~G2 DGBG|AcBG AGEG|DG ~G2 DGBd|egdg edge|
dB ~B2 GBdB|cE ~E2 GE D2|DEGA BABc|dBAc BG ~G2:|
|:BddB d2 Bd|egdg edge|dB ~B2 GBdB|cE~ E2 GED2|
Bd ~d2 Bdef|(3gag fa gedB|DEGA BABc|dBAc BG ~G2:|

